dist/img/svg/cb_icon_layout.svg

<svg width="42" height="44" viewBox="0 0 42 44" fill="none" xmlns="http://www.w3.org/2000/svg">
<path fill-rule="evenodd" clip-rule="evenodd" d="M41.1384 21.2159H36.154C35.6056 21.2159 35.1964 20.7219 35.3113 20.198L39.3713 1.51794C39.4853 0.994051 39.077 0.5 38.5286 0.5H4.99911C4.59257 0.5 4.24077 0.778178 4.15641 1.16693L0.0191822 20.198C-0.0947935 20.7219 0.313545 21.2159 0.861884 21.2159H5.68476C6.2331 21.2159 6.64144 21.71 6.52746 22.2347L2.10216 42.4812C1.98728 43.0059 2.39652 43.5 2.94486 43.5H36.6601C37.0667 43.5 37.4185 43.2218 37.5028 42.8322L41.9811 22.2339C42.0942 21.71 41.6858 21.2159 41.1384 21.2159Z" fill="white" fill-opacity="0.7"/>
</svg>

<svg width="42" height="44" viewBox="0 0 42 44" fill="none" xmlns="http://www.w3.org/2000/svg"><path fill-rule="evenodd" clip-rule="evenodd" d="M41.138 21.216h-4.984c-.548 0-.958-.494-.843-1.018l4.06-18.68A.847.847 0 0038.53.5H4.999a.857.857 0 00-.843.667L.02 20.198c-.114.524.295 1.018.843 1.018h4.823c.548 0 .956.494.842 1.019L2.102 42.48c-.115.525.295 1.019.843 1.019H36.66a.857.857 0 00.843-.668l4.478-20.598a.849.849 0 00-.843-1.018z" fill="#fff" fill-opacity=".7"/></svg>
